X:1
T:Standin In The Need of Prayer
T:O Mary don't you weep don't you mourn
T:Copyright 1918 by Homer A. Rodeheaver
T:Rodeheaver's Plantation Melodies
T:Rodeheaver's Plantation Melodies
Z:Rodeheaver's Plantation Melodies
%%score [ 1 2 3 4 ]
L:1/8
Q:1/4=100
M:4/4
K:Bb
V:1 treble nm="Soprano" snm="S."
V:2 treble nm="Alto" snm="A."
V:3 bass nm="Tenor" snm="T."
V:4 bass nm="Bass" snm="B."
V:1
 d4 eedd | d c2 =B c4 | c4 ddcc | c B2 A B4 | G B3 c B2 G | F4 B4 | d4 dBcB | B8!fine! :| %8
w: ||||||||
 ddd-d e-ed-d | d2 c-c c4 | c2 c-c d2 c-c | c2 B-B B4 | G B3 c B2 G | F4 B4 | d4 dB c>B | B8 |] %16
w: Some of these- * morn- * ings *|bright and- * fair.|Take my- * wings and- *|cleave the- * air.|||||
V:2
 F4 GGFF | F E2 D E4 | E4 FFEE | E D2 E D4 | E G3 G G2 E | D4 D4 | F4 FDEE | D8 :| z8 | z8 | z8 | %11
w: O Ma- ry don't you|weep, don't you *|O Ma- ry don't you|weep, don't you mourn.|Pha- raoh's ar- my got|drownd- ed,|O Ma- ry don't you|weep.||||
 z8 | E G3 G G2 E | D4 F4 | F4 FD E>E | D8 |] %16
w: |Pha- raoh's ar- my got|drownd- ed.|O Ma- ry don't you|weep.|
V:3
 B,4 B,B,B,B, | B, A,2 ^G, A,4 | A,4 A,A,A,A, | B, F,2 F, [F,B,]4 | B, E3 E E2 B, | B,4 B,4 | %6
 B,4 B,F,A,A, | [F,B,]8 :| z8 | z8 | z8 | z8 | B, E3 E E2 B, | B,4 B,4 | B,4 B,F, A,>A, | %15
 [F,B,]8 |] %16
V:4
 B,,4 B,,B,,B,,B,, | F, F,2 F, F,4 | F,4 F,F,F,F, | B,, B,,2 B,, B,,4 | E, E,3 E, E,2 E, | %5
 B,,4 B,,4 | F,4 F,F,F,F, | B,,8 :| z8 | z8 | z8 | z8 | %12
"_2 When I get to heaven goin' to sing and shout,\n    Nobody there for to turn me out;\n\n3 When I get to heaven goin' to put on my shoes,\n    Run about glory and tell all the news;\n" E, E,3 E, E,2 E, | %13
 B,,4 B,,4 | F,4 F,F, F,>F, | B,,8 |] %16

